X:915
T:Tie the Bonnet
R:reel
Z:transcribed by Dave Marshall
M:C|
K:Amix
|: A2eg fdec | A2A=c BGGB | A2eg fdef | ~g3d BGG2 :|
|: fgaf gfed | cAeA fAeA | fgaf gfef |  ~g3d BGG2 :|
